X: 1810
T: Suziş-i Aşkım
C: Hacı Ârif Bey
O: Turkey
F: http://compmusic.upf.edu/node/140
N: buselik--sarki--yuruksemai--suzis-i_askim--haci_arif_bey
N: makam= buselik
N: form= sarki
N: usul= yuruksemai = 6/8
M: 6/8
L: 1/16
K: C    
Q: 1/4=120
%%MIDI tuningsystem comma53
A8 g2f2  | f2e2 e6d2  | c2d2 e2f2 e2d2  | \
w:   |   |   | 
c2B2 c4 z4  | c6d2 c2B2  | 
w:   |   | 
B8 c4  | d8 c2e2  | e2d2 c2B2 A2z2  | A8 g2f2  | \
w:   |   |   |   | 
f2e2 e6d2  | c2d2 e2f2 e2d2  | 
w:   |   | 
c2B2 c4 z4  | d8 c2d2  | e6g2 f2e2  | e6d2 d2c2  | \
w:   |   |   |   | 
B8 z4  | f6g2 f2e2  | 
w:   |   | 
e2d2 d8  | g2a2 g2f2 f4  | f2e2 e6d2  | \
w:   |   |   | 
d8 d4  | c2d2 e8  | e2d2 d2c2 c2B2  | 
w:   |   |   | 
B2A2 A2^G2 A4  | c8 B4  | B4 A4 ^G4  | A4 B4 c4  | \
w:   |   |   |   | 
d4 e4 z4  | c8 B2A2  | c2B2 A4 ^G4  | 
w:   |   |   | 
A6f2 e2d2  | c2B2 A4 z4  | f6g2 f2e2  | \
w:   |   |   | 
e2d2 d8  | g2a2 g2f2 f4  | f2e2 e6d2  | 
w:   |   |   | 
d8 d4  | c2d2 e8  | e2d2 d2c2 c2B2  | B2A2 A2^G2 A4  | \
w:   |   |   |   | 
c8 B4  | B4 A4 ^G4  | 
w:   |   | 
A4 B4 c4  | d4 e4 z4  | c8 B2A2  | c2B2 A4 ^G4  | \
w:   |   |   |   | 
A6f2 e2d2  | c2B2 A4 z4  | 
w:   |   | 
G8 d2c2  | c2B2 c8  | d8 _7/8e4  | _7/8e2d2 c8  | \
w:   |   |   |   | 
g8 f2_7/8e2  | _7/8e8 d2c2  | d12  | g2^f2 _7/8e2d2 c4  | 
w:   |   |   |   | 
_7/8e8 d4  | c8 B4  | c4 d4 _7/8e4  | ^f4 g4 z4  | \
w:   |   |   |   | 
_7/8e6d2 c4  | _7/8e2d2 c4 B4  | c6a2 g2^f2  | 
w:   |   |   | 
_7/8e2d2 c4 z4  | f6g2 f2e2  | e2d2 d8  | \
w:   |   |   | 
g2a2 g2f2 f4  | f2e2 e6d2  | d8 d4  | 
w:   |   |   | 
c2d2 e6z2  | e2d2 d2c2 c2B2  | B2A2 A2^G2 A4  | \
w:   |   |   | 
c8 B4  | B4 A4 ^G4  | A4 B4 c4  | 
w:   |   |   | 
d4 e4 z4  | c8 B2A2  | c2B2 A4 ^G4  | A6f2 e2d2  | \
w:   |   |   |   | 
c2B2 A4 z4  | f6g2 f2e2  | 
w:   |   | 
e2d2 d8  | g2a2 g2f2 f4  | f2e2 e6d2  | \
w:   |   |   | 
d8 d4  | c2d2 e6z2  | e2d2 d2c2 c2B2  | 
w:   |   |   | 
B2A2 A2^G2 A4  | c8 B4  | B4 A4 ^G4  | A4 B4 c4  | \
w:   |   |   |   | 
d4 e4 z4  | c8 B2A2  | c2B2 A4 ^G4  | 
w:   |   |   | 
A8 A8 z8  | e2f2 a4 g4  | f4 e4 d4  | e4 d2f2 e2d2  | \
w:   |   |   |   | 
c4 B4 A4  | B2c2 d2f2 e2d2  | 
w:   |   | 
c4 B4 A4  | e2d2 c4 d4  | e8 z4  | e2f2 a4 g4  | \
w:   |   |   |   | 
f4 e4 d4  | e4 d2f2 e2d2  | 
w:   |   | 
c4 B4 A4  | B2c2 d2f2 e2d2  | c2B2 A4 B4  | \
w:   |   |   | 
c2B2 A4 ^G4  | A8 z4  | e2f2 a4 g4  | 
w:   |   |   | 
f4 e4 d4  | e4 d2f2 e2d2  | c4 B4 A4  | \
w:   |   |   | 
B2c2 d2f2 e2d2  | c4 B4 A4  | e2d2 c4 d4  | 
w:   |   |   | 
e8 z4  | e2f2 a4 g4  | f4 e4 d4  | e4 d2f2 e2d2  | \
w:   |   |   |   | 
c4 B4 A4  | B2c2 d2f2 e2d2  | 
w:   |   | 
c2B2 A4 B4  | c2B2 A4 ^G4  | A8 z4  | |


